X:2
T:Off to California
M:4/4
L:1/8
R:hornpipe
C:Traditional
K:G
(3DEF | GF GB AG ED | GB dg e2 (3def | gf gd ed BG | AB AG E2 (3DEF |
GF GB AG ED | GB dg e2 (3def | gf gd ed BG | (3(ABA) EF G2 :|
|: (3def | gf eg fe df | ed ef ed B2 | gf gd ed BG | AB AG E2 (3DEF |
GF GB AG ED | GB dg e2 (3def | gf gd ed BG | (3(ABA) EF G2 :|

